X:4446
T:Drunk at Night,(1st Part). BF11.69
M:3/4
L:1/8
Q:120
C:Browne A hand
S:MS11,c1800.,Browne Coll.,Lakes
R:Air
O:England
A:Lakes
N:This tune occupies three & 1/2 pages in MS.I have broken it into two
N:halves to make it fit on two A4 pages (I hope)..Notes marked with a
N:plus
N:sign have no stems in MS..The notes on this page only that I have
N:marked as triplets are not marked so in MS..CGP
Z:vmp.Chris Partington
K:A
c4B2|A2B2(AB/c/)|D2G2Bd|c2B2A2|c2dcBA|D2C/B,/C DB,|G,2G2GB|G4::!
G,/A,/C/G,/|C2ECEC|B,2DB,DB,|G,2G2Bd|c2B2A2|C2ECEC|!B,2DB,DB,|G,2G2GB|
G4G,/A,/C/G,/|
C2ECEC|B,2DB,DB,|G,2G2Bd|!c2B2A2|cBABc2|DCB,CDB,|G,2G2GB|G4::!
G,2 ((3gag) e2|D2 ((3gag) e2|G,2c2c2|c3BA2|G,2 ((3gag) e2|G,2 ((3gag) e2
|G,2c2c2|c3BA2|!
cBABc2|DCB,CDB,|G,2G2GB|c3BA|""e2""A2""D2|DCB,CDB,|G,2G2GB|G4::!
A2a3a|A2g3g|A2c2c2|c3BA2|
A2aAaA|A2gAgA|!A2c2c2|c3BA2|
cBABc2|DCB,CDB,|G,2G2Bd|!c3BA2|
""e>e ""A>A ""D>D|DCB,CDB,|G,G2GB|G4::!
""D2""e2""A2|""D2""e2""A2|""D2c2cd|c3BA2|
""D>D ""e>e ""A>A|""D>D ""e>e ""A>A|!D2c2cd|c3BA|
cBABc2|DCB,CDB,|G,2G2BD|!c3BA2|
""ee/e/ ""AA/A/ ""DD/D/|G/F/E/D/ E/D/C/B,/ C/B,/A,/G,/|G,2G2GB|G4::!
A2e2A2|A2e2A2|A2c2c2|c3BA|
cBABc2|DCB,CDB,|!G,2G2Bd|c3BA|
e2A2D2|G/F/E/D/ E/D/C/B,/ C/B,/A,/G,/|G,2"Continued......"G2GB|G4:|]!
